dist/assets/vector2.svg

<svg width="50" height="51" viewBox="0 0 50 51" fill="none" xmlns="http://www.w3.org/2000/svg">
<path d="M50 23.4637C50 36.4096 38.8063 46.9044 25 46.9044C22.5239 46.908 20.0581 46.5635 17.6656 45.8797C15.8406 46.8709 11.65 48.7729 4.6 50.012C3.975 50.1191 3.5 49.4226 3.74688 48.7997C4.85313 46.0002 5.85313 42.2698 6.15312 38.8676C2.325 34.7487 0 29.3573 0 23.4637C0 10.5177 11.1937 0.0229492 25 0.0229492C38.8063 0.0229492 50 10.5177 50 23.4637ZM15.625 23.4637C15.625 22.5755 15.2958 21.7238 14.7097 21.0958C14.1237 20.4678 13.3288 20.115 12.5 20.115C11.6712 20.115 10.8763 20.4678 10.2903 21.0958C9.70424 21.7238 9.375 22.5755 9.375 23.4637C9.375 24.3518 9.70424 25.2035 10.2903 25.8315C10.8763 26.4595 11.6712 26.8123 12.5 26.8123C13.3288 26.8123 14.1237 26.4595 14.7097 25.8315C15.2958 25.2035 15.625 24.3518 15.625 23.4637ZM28.125 23.4637C28.125 22.5755 27.7958 21.7238 27.2097 21.0958C26.6237 20.4678 25.8288 20.115 25 20.115C24.1712 20.115 23.3763 20.4678 22.7903 21.0958C22.2042 21.7238 21.875 22.5755 21.875 23.4637C21.875 24.3518 22.2042 25.2035 22.7903 25.8315C23.3763 26.4595 24.1712 26.8123 25 26.8123C25.8288 26.8123 26.6237 26.4595 27.2097 25.8315C27.7958 25.2035 28.125 24.3518 28.125 23.4637ZM37.5 26.8123C38.3288 26.8123 39.1237 26.4595 39.7097 25.8315C40.2958 25.2035 40.625 24.3518 40.625 23.4637C40.625 22.5755 40.2958 21.7238 39.7097 21.0958C39.1237 20.4678 38.3288 20.115 37.5 20.115C36.6712 20.115 35.8763 20.4678 35.2903 21.0958C34.7042 21.7238 34.375 22.5755 34.375 23.4637C34.375 24.3518 34.7042 25.2035 35.2903 25.8315C35.8763 26.4595 36.6712 26.8123 37.5 26.8123Z" fill="white"/>
</svg>

<svg width="50" height="51" fill="none" xmlns="http://www.w3.org/2000/svg"><path d="M50 23.464c0 12.946-11.194 23.44-25 23.44a26.534 26.534 0 01-7.334-1.024c-1.825.99-6.016 2.893-13.066 4.132-.625.107-1.1-.59-.853-1.212 1.106-2.8 2.106-6.53 2.406-9.932C2.325 34.748 0 29.358 0 23.464 0 10.518 11.194.023 25 .023s25 10.495 25 23.44zm-34.375 0c0-.888-.33-1.74-.915-2.368a3.023 3.023 0 00-2.21-.981c-.829 0-1.624.353-2.21.98a3.474 3.474 0 00-.915 2.369c0 .888.33 1.74.915 2.367.586.628 1.381.981 2.21.981s1.624-.353 2.21-.98c.586-.629.915-1.48.915-2.368zm12.5 0c0-.888-.33-1.74-.915-2.368a3.023 3.023 0 00-2.21-.981c-.829 0-1.624.353-2.21.98a3.474 3.474 0 00-.915 2.369c0 .888.33 1.74.915 2.367.586.628 1.381.981 2.21.981s1.624-.353 2.21-.98c.586-.629.915-1.48.915-2.368zm9.375 3.348c.829 0 1.624-.353 2.21-.98.586-.629.915-1.48.915-2.368 0-.888-.33-1.74-.915-2.368a3.023 3.023 0 00-2.21-.981c-.829 0-1.624.353-2.21.98a3.474 3.474 0 00-.915 2.369c0 .888.33 1.74.915 2.367a3.023 3.023 0 002.21.981z" fill="#fff"/></svg>
